img/buy_now/bitcoin.svg

<svg width="50" height="12" viewBox="0 0 50 12" fill="none" xmlns="http://www.w3.org/2000/svg">
<path d="M10.2615 7.15623C9.5657 9.94659 6.7392 11.6448 3.94819 10.9489C1.15832 10.2532 -0.540058 7.42692 0.156027 4.63672C0.85146 1.84603 3.67796 0.14769 6.46816 0.843368C9.25901 1.53905 10.9572 4.3657 10.2615 7.15623Z" fill="#F7931A"/>
<path fill-rule="evenodd" clip-rule="evenodd" d="M7.34065 5.23575C7.44266 4.52746 6.92351 4.14671 6.21364 3.89271L6.44391 2.93325L5.88169 2.7877L5.6575 3.72187C5.5097 3.68361 5.35789 3.64752 5.20705 3.61176L5.43284 2.67143L4.87093 2.52588L4.6405 3.485C4.51816 3.45606 4.39806 3.42745 4.28148 3.39734L4.28212 3.39435L3.50676 3.19324L3.3572 3.81702C3.3572 3.81702 3.77434 3.91633 3.76554 3.92248C3.99325 3.98153 4.0344 4.13806 4.02751 4.26215L3.76522 5.35518C3.78091 5.35934 3.80125 5.36533 3.82367 5.37464L3.80463 5.3697L3.76426 5.35934L3.39659 6.89051C3.36873 6.96237 3.29811 7.07016 3.13894 7.02924C3.14454 7.03772 2.73028 6.92328 2.73028 6.92328L2.45117 7.5918L3.18282 7.78127C3.26452 7.80254 3.34525 7.8244 3.42513 7.84604L3.42548 7.84614C3.47855 7.86052 3.53126 7.87479 3.58363 7.88872L3.35096 8.85916L3.91254 9.00471L4.14297 8.04459C4.29638 8.08783 4.4453 8.12776 4.59102 8.16535L4.36139 9.12098L4.92361 9.26653L5.15629 8.29792C6.115 8.48639 6.83591 8.41037 7.13936 7.50963C7.38389 6.78438 7.12719 6.36604 6.62278 6.09324C6.99012 6.00524 7.26683 5.75423 7.34065 5.23575ZM6.05594 7.10707C5.89653 7.77245 4.8939 7.49736 4.43515 7.3715L4.43513 7.37149C4.39386 7.36017 4.357 7.35006 4.32555 7.34194L4.63428 6.05629C4.67258 6.06622 4.71938 6.07713 4.77239 6.08948L4.77241 6.08949C5.24689 6.20009 6.21927 6.42674 6.05594 7.10707ZM4.86783 5.49259C5.25031 5.59862 6.0846 5.8299 6.22993 5.22515C6.37833 4.60657 5.56746 4.42011 5.17145 4.32904C5.1269 4.3188 5.08761 4.30976 5.05552 4.30145L4.7756 5.46751C4.80204 5.47435 4.83307 5.48295 4.86783 5.49259Z" fill="white"/>
<path fill-rule="evenodd" clip-rule="evenodd" d="M16.4728 4.06286C16.1797 3.9142 15.8309 3.83849 15.4272 3.83849C15.2343 3.83849 15.0538 3.86128 14.8856 3.90508C14.7176 3.94953 14.5493 4.01059 14.3822 4.0894L15.1627 0.6875L13.2102 1.00419L11.0303 10.5907C11.2741 10.7141 11.5329 10.8113 11.8055 10.8807C12.0782 10.9513 12.3365 11.0041 12.5807 11.0397C12.8234 11.0741 13.0402 11.0944 13.2287 11.0985C13.4173 11.1026 13.5508 11.1049 13.6267 11.1049C14.2138 11.1049 14.7607 10.9883 15.2637 10.7551C15.7674 10.5221 16.2043 10.2067 16.5742 9.80667C16.9445 9.40612 17.2356 8.93653 17.4501 8.39514C17.6647 7.85456 17.7709 7.28109 17.7709 6.67408C17.7709 6.2789 17.7249 5.90978 17.6331 5.56638C17.5407 5.22396 17.3975 4.92518 17.2052 4.66954C17.0103 4.41521 16.7673 4.21298 16.4728 4.06286ZM14.6206 9.25936C14.3603 9.40801 14.0833 9.48373 13.7892 9.48373L13.5629 9.48357C13.5033 9.48357 13.454 9.48096 13.4109 9.47591C13.3701 9.47152 13.3292 9.46517 13.2922 9.45621C13.2543 9.44791 13.21 9.43911 13.1599 9.42983L13.991 5.81708C14.143 5.67721 14.3126 5.58424 14.5021 5.53946C14.6909 5.49729 14.8432 5.47368 14.9615 5.47368C15.3223 5.47368 15.5707 5.59287 15.705 5.82978C15.8392 6.06766 15.9066 6.39673 15.9066 6.81861C15.9066 7.16201 15.8515 7.49205 15.7426 7.80842C15.6337 8.12479 15.4844 8.40794 15.2957 8.65935C15.1069 8.90961 14.8817 9.11053 14.6206 9.25936Z" fill="#4D4D4D"/>
<path fill-rule="evenodd" clip-rule="evenodd" d="M19.9496 3.31599C20.1704 3.47372 20.4192 3.55242 20.6935 3.55242C20.8792 3.55242 21.0533 3.51971 21.2178 3.45064C21.3808 3.38221 21.526 3.29086 21.6491 3.17596C21.7734 3.06027 21.8727 2.9242 21.9476 2.76615C22.023 2.60811 22.0606 2.43963 22.0606 2.2601C22.0606 1.93658 21.9496 1.69525 21.7288 1.53673C21.5073 1.379 21.2598 1.30029 20.9856 1.30029C20.7993 1.30029 20.6245 1.33427 20.4602 1.40223C20.2968 1.4713 20.153 1.56296 20.0288 1.6777C19.9045 1.79339 19.8053 1.92947 19.7294 2.08751C19.6546 2.24587 19.6169 2.41371 19.6169 2.59262C19.6169 2.91787 19.7271 3.15921 19.9496 3.31599ZM17.771 11.1048H19.7368L21.4104 4.37262H19.4311L17.771 11.1048Z" fill="#4D4D4D"/>
<path d="M22.8399 2.23165L24.7627 1.91309L24.2905 3.96957H26.3498L25.978 5.58745H23.9311L23.3859 8.02785C23.3356 8.23127 23.3072 8.42126 23.2992 8.59782C23.2902 8.7752 23.3111 8.92752 23.3608 9.05577C23.4101 9.18434 23.4987 9.28343 23.6274 9.35353C23.7554 9.42477 23.9387 9.46064 24.1792 9.46064C24.3772 9.46064 24.5702 9.4405 24.7567 9.40053C24.9422 9.36122 25.1301 9.30652 25.3203 9.23495L25.4572 10.7477C25.2091 10.845 24.9405 10.9287 24.6511 10.9991C24.3611 11.0705 24.0179 11.1049 23.6213 11.1049C23.0509 11.1049 22.6088 11.0143 22.2938 10.834C21.9792 10.6523 21.7568 10.4042 21.6237 10.0901C21.4925 9.77708 21.4338 9.41626 21.4502 9.00974C21.4672 8.60224 21.5246 8.17394 21.6237 7.72288L22.8399 2.23165Z" fill="#4D4D4D"/>
<path d="M26.3501 8.13213C26.3501 7.53085 26.4478 6.96383 26.643 6.43303C26.8379 5.90173 27.1187 5.43713 27.4829 5.03841C27.8459 4.64166 28.2882 4.32734 28.8087 4.0966C29.3268 3.86716 29.9069 3.75146 30.5461 3.75146C30.9463 3.75146 31.3037 3.78916 31.6181 3.86471C31.9339 3.94091 32.2196 4.0394 32.478 4.16297L31.7981 5.70343C31.6204 5.63165 31.4361 5.5684 31.2454 5.51104C31.0547 5.45253 30.8218 5.42435 30.5463 5.42435C29.8883 5.42435 29.3681 5.65034 28.9809 6.10084C28.5952 6.55167 28.401 7.15852 28.401 7.91974C28.401 8.3709 28.4987 8.7357 28.6947 9.01478C28.8898 9.29387 29.2501 9.43268 29.7733 9.43268C30.0315 9.43268 30.2807 9.4058 30.5193 9.35336C30.7598 9.30026 30.9721 9.2334 31.1591 9.15441L31.3063 10.7336C31.057 10.8299 30.782 10.9169 30.4803 10.9931C30.1781 11.0667 29.8182 11.1049 29.401 11.1049C28.8502 11.1049 28.3839 11.0246 28.0025 10.8665C27.6209 10.7059 27.3056 10.4926 27.0573 10.2226C26.8076 9.95185 26.6284 9.63572 26.5175 9.27289C26.4067 8.91039 26.3501 8.52954 26.3501 8.13213H26.3501Z" fill="#4D4D4D"/>
<path fill-rule="evenodd" clip-rule="evenodd" d="M34.0278 10.892C34.376 11.0335 34.7865 11.1049 35.2591 11.1049C35.9102 11.1049 36.4837 10.9695 36.9783 10.6998C37.4735 10.43 37.8858 10.0828 38.2155 9.6585C38.5459 9.23323 38.7961 8.75471 38.9648 8.22554C39.1333 7.69375 39.2182 7.16213 39.2182 6.63198C39.2182 6.20769 39.1607 5.81979 39.0443 5.47105C38.9286 5.12101 38.7567 4.81898 38.5304 4.56169C38.3016 4.30571 38.0122 4.10561 37.6608 3.96451C37.3078 3.82308 36.8995 3.75146 36.4355 3.75146C35.8032 3.75146 35.2402 3.88683 34.7508 4.15592C34.2609 4.42681 33.8448 4.77424 33.5075 5.19918C33.1675 5.62346 32.9107 6.10084 32.7375 6.63214C32.5636 7.16229 32.4775 7.69391 32.4775 8.2257C32.4775 8.64966 32.5337 9.03658 32.6505 9.38597C32.7673 9.73553 32.9377 10.0389 33.1655 10.2948C33.393 10.5521 33.6806 10.7506 34.0278 10.892ZM35.4737 5.67593C35.6958 5.50894 35.9553 5.42438 36.2489 5.42438C36.6233 5.42438 36.8823 5.5486 37.0251 5.79556C37.168 6.04351 37.2396 6.3893 37.2396 6.83112C37.2396 7.10513 37.2015 7.39568 37.1267 7.70034C37.0502 8.00581 36.936 8.28719 36.7844 8.54317C36.6323 8.7998 36.4448 9.01236 36.2231 9.18C35.9996 9.3488 35.7414 9.43271 35.4469 9.43271C35.0721 9.43271 34.8142 9.30849 34.6707 9.06152C34.5291 8.81324 34.4571 8.46828 34.4571 8.02531C34.4571 7.75081 34.4943 7.46189 34.5701 7.15626C34.6466 6.85128 34.7597 6.57071 34.9124 6.31342C35.0633 6.05728 35.2507 5.84489 35.4737 5.67593Z" fill="#4D4D4D"/>
<path fill-rule="evenodd" clip-rule="evenodd" d="M41.3966 3.31599C41.6169 3.47372 41.8654 3.55242 42.1394 3.55242C42.326 3.55242 42.5004 3.51971 42.6649 3.45064C42.8282 3.38221 42.9715 3.29086 43.096 3.17596C43.2198 3.06027 43.3196 2.9242 43.3939 2.76615C43.4681 2.60811 43.5078 2.43963 43.5078 2.2601C43.5078 1.93658 43.3962 1.69525 43.1751 1.53673C42.9541 1.379 42.7059 1.30029 42.4312 1.30029C42.2457 1.30029 42.0709 1.33427 41.9077 1.40223C41.7447 1.4713 41.5997 1.56296 41.4762 1.6777C41.352 1.79339 41.2522 1.92947 41.1772 2.08751C41.1023 2.24587 41.0641 2.41371 41.0641 2.59262C41.0641 2.91787 41.1753 3.15921 41.3966 3.31599ZM39.2183 11.1048H41.1848L42.8569 4.37262H40.8776L39.2183 11.1048Z" fill="#4D4D4D"/>
<path d="M43.8473 4.81531C43.9925 4.77416 44.1547 4.72466 44.331 4.67083C44.508 4.617 44.7058 4.56688 44.9266 4.52171C45.1451 4.47515 45.3917 4.4374 45.6629 4.40817C45.934 4.37831 46.243 4.36377 46.5863 4.36377C47.5952 4.36377 48.2907 4.64856 48.6747 5.21643C49.0584 5.78429 49.1248 6.56146 48.8758 7.54653L47.9958 11.1044H46.0701L46.923 7.6214C46.975 7.40391 47.0159 7.19368 47.0461 6.98825C47.0765 6.78468 47.0748 6.60524 47.0392 6.44993C47.0052 6.29648 46.9251 6.17087 46.8008 6.07357C46.6745 5.97781 46.4838 5.9297 46.2251 5.9297C45.9757 5.9297 45.7219 5.95569 45.4629 6.00581L44.2089 11.1043H42.2825L43.8473 4.81531Z" fill="#4D4D4D"/>
</svg>

<svg width="50" height="12" fill="none" xmlns="http://www.w3.org/2000/svg"><path d="M10.261 7.156A5.208 5.208 0 11.155 4.636a5.208 5.208 0 0110.107 2.52z" fill="#F7931A"/><path fill-rule="evenodd" clip-rule="evenodd" d="M7.34 5.236c.103-.709-.416-1.09-1.126-1.343l.23-.96-.562-.145-.224.934c-.148-.038-.3-.074-.451-.11l.226-.94-.562-.146-.23.959a18.188 18.188 0 01-.36-.088l.001-.003-.775-.2-.15.623s.417.1.409.105c.227.06.268.216.262.34l-.263 1.093c.016.004.036.01.059.02l-.02-.005-.04-.01-.367 1.53c-.028.072-.099.18-.258.14a8.733 8.733 0 01-.409-.107l-.279.669.732.19c.082.02.162.042.242.064l.159.043-.233.97.562.146.23-.96c.153.043.302.083.448.12l-.23.956.563.146.232-.97c.959.19 1.68.113 1.983-.787.245-.726-.012-1.144-.516-1.417.367-.088.644-.339.718-.857zM6.057 7.107c-.16.665-1.162.39-1.62.264a8.02 8.02 0 00-.11-.03l.308-1.285.138.033c.475.111 1.447.338 1.284 1.018zM4.868 5.493c.382.106 1.217.337 1.362-.268.148-.618-.663-.805-1.059-.896a4.67 4.67 0 01-.115-.028l-.28 1.167c.026.006.057.015.092.025z" fill="#fff"/><path fill-rule="evenodd" clip-rule="evenodd" d="M16.473 4.063c-.293-.149-.642-.225-1.046-.225-.193 0-.373.023-.541.067a2.946 2.946 0 00-.504.184l.78-3.402-1.952.317-2.18 9.587c.244.123.503.22.776.29.272.07.53.123.775.159.242.034.46.054.648.059.188.004.322.006.398.006.587 0 1.134-.117 1.637-.35a4.12 4.12 0 001.31-.948c.37-.4.662-.87.876-1.412a4.62 4.62 0 00.32-1.72c0-.396-.045-.765-.137-1.109a2.603 2.603 0 00-.428-.896 2.124 2.124 0 00-.732-.607zM14.62 9.259a1.65 1.65 0 01-.832.225h-.226a1.307 1.307 0 01-.27-.028 4.24 4.24 0 00-.133-.026l.831-3.613a1.13 1.13 0 01.511-.278c.189-.042.341-.065.46-.065.36 0 .609.119.743.356.134.238.202.567.202.989a3.071 3.071 0 01-.61 1.84 2.23 2.23 0 01-.676.6zm5.33-5.943c.22.158.47.236.744.236.185 0 .36-.032.524-.101.163-.069.308-.16.431-.275.124-.116.224-.252.299-.41a1.16 1.16 0 00.113-.506c0-.323-.111-.565-.332-.723a1.25 1.25 0 00-.743-.237 1.36 1.36 0 00-.526.102c-.163.07-.307.161-.431.276a1.352 1.352 0 00-.3.41 1.167 1.167 0 00-.112.505c0 .325.11.566.333.723zm-2.179 7.789h1.966l1.673-6.732h-1.979l-1.66 6.732z" fill="#4D4D4D"/><path d="M22.84 2.232l1.923-.319-.473 2.057h2.06l-.372 1.617h-2.047l-.545 2.44c-.05.204-.079.394-.087.57-.009.178.012.33.062.459a.56.56 0 00.266.298c.128.07.312.107.552.107.198 0 .391-.02.578-.06.185-.04.373-.094.563-.166l.137 1.513a6.26 6.26 0 01-.806.251c-.29.071-.633.106-1.03.106-.57 0-1.012-.09-1.327-.271a1.537 1.537 0 01-.67-.744 2.51 2.51 0 01-.174-1.08c.017-.408.075-.836.174-1.287l1.216-5.491zm3.51 5.9c0-.601.098-1.168.293-1.699.195-.531.476-.996.84-1.395a3.933 3.933 0 011.326-.941 4.25 4.25 0 011.737-.346 4.352 4.352 0 011.932.412l-.68 1.54a6.383 6.383 0 00-.553-.192 2.412 2.412 0 00-.699-.087c-.658 0-1.178.226-1.565.677-.386.45-.58 1.058-.58 1.819 0 .45.098.816.294 1.095.195.279.555.418 1.078.418a3.684 3.684 0 001.386-.278l.147 1.579a7.16 7.16 0 01-.826.26 4.605 4.605 0 01-1.079.11c-.55 0-1.017-.08-1.398-.237a2.663 2.663 0 01-.946-.644 2.425 2.425 0 01-.54-.95 3.884 3.884 0 01-.167-1.14z" fill="#4D4D4D"/><path fill-rule="evenodd" clip-rule="evenodd" d="M34.028 10.892c.348.142.758.213 1.231.213.651 0 1.225-.136 1.72-.405a3.92 3.92 0 001.236-1.041c.33-.426.581-.904.75-1.433a5.254 5.254 0 00.253-1.594 3.63 3.63 0 00-.174-1.16 2.588 2.588 0 00-.514-.91 2.29 2.29 0 00-.87-.597 3.277 3.277 0 00-1.224-.214c-.633 0-1.196.136-1.685.405-.49.27-.906.618-1.243 1.043-.34.424-.597.902-.77 1.433a5.087 5.087 0 00-.26 1.594c0 .424.056.81.172 1.16.117.35.288.653.516.909.227.257.515.456.862.597zm1.446-5.216c.222-.167.481-.252.775-.252.374 0 .633.125.776.372.143.248.215.593.215 1.035 0 .274-.038.565-.113.87a3.149 3.149 0 01-.343.842 2.19 2.19 0 01-.56.637 1.251 1.251 0 01-.777.253c-.375 0-.633-.125-.776-.371-.142-.249-.214-.594-.214-1.037 0-.274.037-.563.113-.869a3.18 3.18 0 01.342-.843c.151-.256.339-.468.562-.637zm5.923-2.36c.22.158.468.236.742.236.187 0 .361-.032.526-.101.163-.069.306-.16.431-.275a1.33 1.33 0 00.298-.41c.074-.158.114-.326.114-.506 0-.323-.112-.565-.333-.723a1.25 1.25 0 00-.744-.237c-.185 0-.36.034-.523.102-.163.07-.308.161-.432.276a1.338 1.338 0 00-.299.41 1.166 1.166 0 00-.113.505c0 .325.111.566.333.723zm-2.179 7.789h1.967l1.672-6.732h-1.98l-1.659 6.732z" fill="#4D4D4D"/><path d="M43.847 4.815c.145-.04.308-.09.484-.144a7.34 7.34 0 011.332-.263c.271-.03.58-.044.923-.044 1.01 0 1.705.285 2.089.852.383.568.45 1.345.2 2.33l-.88 3.558H46.07l.853-3.483a7.11 7.11 0 00.123-.633c.03-.203.029-.383-.007-.538a.642.642 0 00-.238-.376c-.127-.096-.317-.144-.576-.144-.25 0-.503.026-.762.076l-1.254 5.098h-1.927l1.565-6.289z" fill="#4D4D4D"/></svg>
